static/img/kroki/be0cdc4c1218c7fa67a67b54350a4409.svg

<?xml version="1.0" encoding="us-ascii" standalone="no"?><svg xmlns="http://www.w3.org/2000/svg" xmlns:xlink="http://www.w3.org/1999/xlink" contentStyleType="text/css" height="252px" preserveAspectRatio="none" style="width:399px;height:252px;" version="1.1" viewBox="0 0 399 252" width="399px" zoomAndPan="magnify"><defs/><g><!--class aws_athena_work_group--><g id="elem_aws_athena_work_group"><rect codeLine="23" fill="#3D176E" height="39.7891" id="aws_athena_work_group" rx="2.5" ry="2.5" style="stroke:#000D19;stroke-width:0.5;" width="251" x="73.55" y="7"/><ellipse cx="88.55" cy="26.8945" fill="#ADD1B2" rx="11" ry="11" style="stroke:#181818;stroke-width:1.0;"/><path d="M91.5188,32.5352 Q90.9406,32.832 90.3,32.9727 Q89.6594,33.1289 88.9563,33.1289 Q86.4563,33.1289 85.1281,31.4883 Q83.8156,29.832 83.8156,26.707 Q83.8156,23.582 85.1281,21.9258 Q86.4563,20.2695 88.9563,20.2695 Q89.6594,20.2695 90.3,20.4258 Q90.9563,20.582 91.5188,20.8789 L91.5188,23.5977 Q90.8938,23.0195 90.3,22.7539 Q89.7063,22.4727 89.0813,22.4727 Q87.7375,22.4727 87.05,23.5508 Q86.3625,24.6133 86.3625,26.707 Q86.3625,28.8008 87.05,29.8789 Q87.7375,30.9414 89.0813,30.9414 Q89.7063,30.9414 90.3,30.6758 Q90.8938,30.3945 91.5188,29.8164 L91.5188,32.5352 Z " fill="#000000"/><text fill="#D9B8FF" font-family="Helvetica" font-size="17" lengthAdjust="spacing" textLength="209" x="107.55" y="32.7798">aws_athena_work_group</text></g><!--class aws_kms_key--><g id="elem_aws_kms_key"><rect codeLine="26" fill="#3D176E" height="39.7891" id="aws_kms_key" rx="2.5" ry="2.5" style="stroke:#000D19;stroke-width:0.5;" width="158" x="19.05" y="206.58"/><ellipse cx="34.05" cy="226.4745" fill="#ADD1B2" rx="11" ry="11" style="stroke:#181818;stroke-width:1.0;"/><path d="M37.0188,232.1152 Q36.4406,232.412 35.8,232.5527 Q35.1594,232.7089 34.4563,232.7089 Q31.9562,232.7089 30.6281,231.0683 Q29.3156,229.412 29.3156,226.287 Q29.3156,223.162 30.6281,221.5058 Q31.9562,219.8495 34.4563,219.8495 Q35.1594,219.8495 35.8,220.0058 Q36.4563,220.162 37.0188,220.4589 L37.0188,223.1777 Q36.3938,222.5995 35.8,222.3339 Q35.2063,222.0527 34.5813,222.0527 Q33.2375,222.0527 32.55,223.1308 Q31.8625,224.1933 31.8625,226.287 Q31.8625,228.3808 32.55,229.4589 Q33.2375,230.5214 34.5813,230.5214 Q35.2063,230.5214 35.8,230.2558 Q36.3938,229.9745 37.0188,229.3964 L37.0188,232.1152 Z " fill="#000000"/><text fill="#D9B8FF" font-family="Helvetica" font-size="17" lengthAdjust="spacing" textLength="116" x="53.05" y="232.3598">aws_kms_key</text></g><!--class aws_s3_bucket--><g id="elem_aws_s3_bucket"><rect codeLine="29" fill="#3D176E" height="39.7891" id="aws_s3_bucket" rx="2.5" ry="2.5" style="stroke:#000D19;stroke-width:0.5;" width="168" x="216.05" y="206.58"/><ellipse cx="231.05" cy="226.4745" fill="#ADD1B2" rx="11" ry="11" style="stroke:#181818;stroke-width:1.0;"/><path d="M234.0188,232.1152 Q233.4406,232.412 232.8,232.5527 Q232.1594,232.7089 231.4563,232.7089 Q228.9563,232.7089 227.6281,231.0683 Q226.3156,229.412 226.3156,226.287 Q226.3156,223.162 227.6281,221.5058 Q228.9563,219.8495 231.4563,219.8495 Q232.1594,219.8495 232.8,220.0058 Q233.4563,220.162 234.0188,220.4589 L234.0188,223.1777 Q233.3938,222.5995 232.8,222.3339 Q232.2063,222.0527 231.5813,222.0527 Q230.2375,222.0527 229.55,223.1308 Q228.8625,224.1933 228.8625,226.287 Q228.8625,228.3808 229.55,229.4589 Q230.2375,230.5214 231.5813,230.5214 Q232.2063,230.5214 232.8,230.2558 Q233.3938,229.9745 234.0188,229.3964 L234.0188,232.1152 Z " fill="#000000"/><text fill="#D9B8FF" font-family="Helvetica" font-size="17" lengthAdjust="spacing" textLength="126" x="250.05" y="232.3598">aws_s3_bucket</text></g><!--class aws_sagemaker_processing_job--><g id="elem_aws_sagemaker_processing_job"><rect codeLine="32" fill="#3D176E" height="39.7891" id="aws_sagemaker_processing_job" rx="2.5" ry="2.5" style="stroke:#000D19;stroke-width:0.5;" width="306" x="46.05" y="106.79"/><ellipse cx="61.05" cy="126.6845" fill="#ADD1B2" rx="11" ry="11" style="stroke:#181818;stroke-width:1.0;"/><path d="M64.0188,132.3252 Q63.4406,132.622 62.8,132.7627 Q62.1594,132.9189 61.4563,132.9189 Q58.9563,132.9189 57.6281,131.2783 Q56.3156,129.622 56.3156,126.497 Q56.3156,123.372 57.6281,121.7158 Q58.9563,120.0595 61.4563,120.0595 Q62.1594,120.0595 62.8,120.2158 Q63.4563,120.372 64.0188,120.6689 L64.0188,123.3877 Q63.3938,122.8095 62.8,122.5439 Q62.2063,122.2627 61.5813,122.2627 Q60.2375,122.2627 59.55,123.3408 Q58.8625,124.4033 58.8625,126.497 Q58.8625,128.5908 59.55,129.6689 Q60.2375,130.7314 61.5813,130.7314 Q62.2063,130.7314 62.8,130.4658 Q63.3938,130.1845 64.0188,129.6064 L64.0188,132.3252 Z " fill="#000000"/><text fill="#D9B8FF" font-family="Helvetica" font-size="17" lengthAdjust="spacing" textLength="264" x="80.05" y="132.5698">aws_sagemaker_processing_job</text></g><!--link aws_athena_work_group to aws_kms_key--><g id="link_aws_athena_work_group_aws_kms_key"><path codeLine="35" d="M111.41,47.18 C79.57,58.88 46.82,77.46 28.05,106.79 C6,141.25 40.0526,178.7628 68.1426,202.4428 " fill="none" id="aws_athena_work_group-to-aws_kms_key" style="stroke:#1A83AF;stroke-width:2.0;"/><polygon fill="#1A83AF" points="72.73,206.31,68.427,197.4509,68.9071,203.0873,63.2707,203.5674,72.73,206.31" style="stroke:#1A83AF;stroke-width:2.0;"/></g><!--link aws_athena_work_group to aws_s3_bucket--><g id="link_aws_athena_work_group_aws_s3_bucket"><path codeLine="36" d="M286.69,47.18 C318.53,58.88 351.28,77.46 370.05,106.79 C392.1,141.25 358.0474,178.7628 329.9574,202.4428 " fill="none" id="aws_athena_work_group-to-aws_s3_bucket" style="stroke:#1A83AF;stroke-width:2.0;"/><polygon fill="#1A83AF" points="325.37,206.31,334.8293,203.5674,329.1929,203.0873,329.673,197.4509,325.37,206.31" style="stroke:#1A83AF;stroke-width:2.0;"/></g><!--link aws_athena_work_group to aws_sagemaker_processing_job--><g id="link_aws_athena_work_group_aws_sagemaker_processing_job"><path codeLine="37" d="M199.05,47.22 C199.05,64.36 199.05,83.27 199.05,100.41 " fill="none" id="aws_athena_work_group-to-aws_sagemaker_processing_job" style="stroke:#1A83AF;stroke-width:2.0;"/><polygon fill="#1A83AF" points="199.05,106.41,203.05,97.41,199.05,101.41,195.05,97.41,199.05,106.41" style="stroke:#1A83AF;stroke-width:2.0;"/></g><!--link aws_sagemaker_processing_job to aws_kms_key--><g id="link_aws_sagemaker_processing_job_aws_kms_key"><path codeLine="38" d="M179.1,147.01 C161.39,164.15 139.9703,184.8861 122.2703,202.0261 " fill="none" id="aws_sagemaker_processing_job-to-aws_kms_key" style="stroke:#1A83AF;stroke-width:2.0;"/><polygon fill="#1A83AF" points="117.96,206.2,127.208,202.8127,121.5519,202.7217,121.6428,197.0656,117.96,206.2" style="stroke:#1A83AF;stroke-width:2.0;"/></g><!--link aws_sagemaker_processing_job to aws_s3_bucket--><g id="link_aws_sagemaker_processing_job_aws_s3_bucket"><path codeLine="39" d="M219,147.01 C236.71,164.15 258.1297,184.8861 275.8297,202.0261 " fill="none" id="aws_sagemaker_processing_job-to-aws_s3_bucket" style="stroke:#1A83AF;stroke-width:2.0;"/><polygon fill="#1A83AF" points="280.14,206.2,276.4572,197.0656,276.5481,202.7217,270.892,202.8127,280.14,206.2" style="stroke:#1A83AF;stroke-width:2.0;"/></g><!--SRC=[ZPBBJiCm44Nt-GfBNLTgYA3j1YbKgc1J8SeEeMWIZnlZn8x6Bb51_3i9vM6IDkqYcxd7ddEjv98Zmx9oErPYcIBPm2gfAo0eMKnaweKf3B6H422YQJTS6krE0YieaTrYyOfEPj0b7dEPAOtMiWilke5CRSXiDTzVxmYqRIBKpgCM1LWREqSotJhqPFWydGdH9RkNZY8UJg-mXndYID_8P3BXuRoBd5mrsFkNMCitPA7_Q2lZiAVPM_553LgsX2VPA_gJ7tMy1ywbth1BR_QmToADz6- -pe6RkgK55DPVOnqI6hUhSD5hXVCP5zE3yDqnECZQfsDGsmHSZXgIsf1AMhHYxq7muG6gR3xSTSSsIj9jfj3r0jXW2GefgSXapG_P54fUJBhd3gySFut2U1R5o-VnjR_qNFnNvkm3HoI3mGQ3ckUV-hFz1000]--></g></svg>

<svg xmlns="http://www.w3.org/2000/svg" width="399" height="252" viewBox="0 0 399 252"><rect width="251" height="39.789" x="73.55" y="7" fill="#3D176E" rx="2.5" ry="2.5" style="stroke:#000d19;stroke-width:.5"/><circle cx="88.55" cy="26.895" r="11" fill="#ADD1B2" style="stroke:#181818;stroke-width:1"/><path d="M91.519 32.535q-.578.297-1.219.438-.64.156-1.344.156-2.5 0-3.828-1.64-1.312-1.657-1.312-4.782t1.312-4.781q1.328-1.656 3.828-1.656.703 0 1.344.156.656.156 1.219.453v2.719q-.625-.578-1.219-.844-.594-.281-1.219-.281-1.344 0-2.031 1.078-.687 1.062-.687 3.156t.687 3.172q.688 1.062 2.031 1.062.625 0 1.219-.265.594-.281 1.219-.86z"/><text x="107.55" y="32.78" fill="#D9B8FF" font-family="Helvetica" font-size="17" textLength="209">aws_athena_work_group</text><rect width="158" height="39.789" x="19.05" y="206.58" fill="#3D176E" rx="2.5" ry="2.5" style="stroke:#000d19;stroke-width:.5"/><circle cx="34.05" cy="226.475" r="11" fill="#ADD1B2" style="stroke:#181818;stroke-width:1"/><path d="M37.019 232.115q-.578.297-1.219.438-.64.156-1.344.156-2.5 0-3.828-1.64-1.312-1.657-1.312-4.782t1.312-4.781q1.328-1.656 3.828-1.656.703 0 1.344.156.656.156 1.219.453v2.719q-.625-.578-1.219-.844-.594-.281-1.219-.281-1.344 0-2.031 1.078-.687 1.062-.687 3.156t.687 3.172q.688 1.062 2.031 1.062.625 0 1.219-.265.594-.281 1.219-.86z"/><text x="53.05" y="232.36" fill="#D9B8FF" font-family="Helvetica" font-size="17" textLength="116">aws_kms_key</text><rect width="168" height="39.789" x="216.05" y="206.58" fill="#3D176E" rx="2.5" ry="2.5" style="stroke:#000d19;stroke-width:.5"/><circle cx="231.05" cy="226.475" r="11" fill="#ADD1B2" style="stroke:#181818;stroke-width:1"/><path d="M234.019 232.115q-.578.297-1.219.438-.64.156-1.344.156-2.5 0-3.828-1.64-1.312-1.657-1.312-4.782t1.312-4.781q1.328-1.656 3.828-1.656.703 0 1.344.156.656.156 1.219.453v2.719q-.625-.578-1.219-.844-.594-.281-1.219-.281-1.343 0-2.031 1.078-.687 1.062-.687 3.156t.687 3.172q.688 1.062 2.031 1.062.625 0 1.219-.265.594-.281 1.219-.86z"/><text x="250.05" y="232.36" fill="#D9B8FF" font-family="Helvetica" font-size="17" textLength="126">aws_s3_bucket</text><rect width="306" height="39.789" x="46.05" y="106.79" fill="#3D176E" rx="2.5" ry="2.5" style="stroke:#000d19;stroke-width:.5"/><circle cx="61.05" cy="126.684" r="11" fill="#ADD1B2" style="stroke:#181818;stroke-width:1"/><path d="M64.019 132.325q-.578.297-1.219.438-.64.156-1.344.156-2.5 0-3.828-1.64-1.312-1.657-1.312-4.782t1.312-4.781q1.328-1.656 3.828-1.656.703 0 1.344.156.656.156 1.219.453v2.719q-.625-.579-1.219-.844-.594-.281-1.219-.281-1.344 0-2.031 1.078-.687 1.062-.687 3.156t.687 3.172q.688 1.062 2.031 1.062.625 0 1.219-.265.594-.281 1.219-.86z"/><text x="80.05" y="132.57" fill="#D9B8FF" font-family="Helvetica" font-size="17" textLength="264">aws_sagemaker_processing_job</text><path fill="none" d="M111.41 47.18c-31.84 11.7-64.59 30.28-83.36 59.61C6 141.25 40.053 178.763 68.143 202.443" style="stroke:#1a83af;stroke-width:2"/><path fill="#1A83AF" d="m72.73 206.31-4.303-8.86.48 5.637-5.636.48z" style="stroke:#1a83af;stroke-width:2"/><path fill="none" d="M286.69 47.18c31.84 11.7 64.59 30.28 83.36 59.61 22.05 34.46-12.003 71.973-40.093 95.653" style="stroke:#1a83af;stroke-width:2"/><path fill="#1A83AF" d="m325.37 206.31 9.46-2.743-5.637-.48.48-5.636z" style="stroke:#1a83af;stroke-width:2"/><path fill="none" d="M199.05 47.22v53.19" style="stroke:#1a83af;stroke-width:2"/><path fill="#1A83AF" d="m199.05 106.41 4-9-4 4-4-4z" style="stroke:#1a83af;stroke-width:2"/><path fill="none" d="M179.1 147.01c-17.71 17.14-39.13 37.876-56.83 55.016" style="stroke:#1a83af;stroke-width:2"/><path fill="#1A83AF" d="m117.96 206.2 9.248-3.387-5.656-.091.09-5.656z" style="stroke:#1a83af;stroke-width:2"/><path fill="none" d="M219 147.01c17.71 17.14 39.13 37.876 56.83 55.016" style="stroke:#1a83af;stroke-width:2"/><path fill="#1A83AF" d="m280.14 206.2-3.683-9.134.091 5.656-5.656.09z" style="stroke:#1a83af;stroke-width:2"/></svg>
